X: 37
T: No_43_The_Sound_of_the_Raingods.krn
N: Derived from No_43_The_Sound_of_the_Raingods.krn
%%abc-version 2.0
%%abcx-abcm2ps-target-version 5.9.1 (29 Sep 2008)
%%abc-creator hum2abc beta
%%abcx-conversion-date 2019/03/15 08:25:35
%%humdrum-veritas 3408881884
%%humdrum-veritas-data 2559034583
%%linebreak <none>
%%barnumbers 0
L: 1/8
M: 3/4
K: D clef=bass
[K:clef=bass][M:3/4]z4z3/ B,/ | 
D2D2D3/B,/ | 
[M:7/8]DDD2z2B, ]|:  
[M:3/4]D2D3/F/ F/E/D/D/ | 
[M:3/8]B, z B, | 
[M:2/4]D2D3/F/ | 
F/E/D/D/ B,/A,/B, | 
B,2A,/G,/A, | 
A,2G, z | 
[M:3/4]D,D, D,D,- D,F, | 
[M:2/4]A,2F,2 | 
[M:3/4]F,/D,3/ D,D,- D,F, | 
[M:3/8]A,A,/D,/D, | 
[M:2/4]F,2F,D, | 
D, zz2 | 
F,/D,3/D,2 | 
F,/D,3/D,2 | 
[M:5/8]z D,D,2D, :|]  
[M:2/4]F,D, F,A, | 
F,D, D,D, | 
F,/D,3/D,2 | 
z D, D, z ]|:  
[M:3/8]D2D | 
D/A,/-A,B, | 
[M:2/4]B,//A,3//-A,/F,/ A,//F,3//F, | 
[M:3/4]D,D, D,D,- D,F, | 
[M:2/4]A,3/F,/ A,/F,/F, | 
[M:3/4]F,//D,3//D, D,D,- D,F, | 
[M:2/4]A,3/D,/ D,3/F,/ | 
[M:3/4]F,F, D,A,, D, z | 
[M:2/4]D,D, F,A, | 
F,D, D,D, | 
F,/D,3/D,2 | 
z D, D, z :|]  
[M:3/8]z2D, | 
D, z D, | 
[M:3/4]D2D3/F/ F/E/D/D/ | 
[M:3/8]B, z B, | 
[M:2/4]D2D3/F/ | 
F/E/D/D/ B,/A,/B, | 
B,2A,/G,/A, | 
A,2G, z | 
[M:3/4]D,2D,D,- D,F, | 
[M:2/4]A,2F,2 | 
[M:3/4]F,/D,3/ D,D,- D,F, | 
[M:3/8]A,A,D, | 
[M:7/8]F,2F,/D,3/D,2z | 
[M:2/4]F,D, F,A, | 
F,D,/F,/ A,/F,/A, | 
F,/D,3/ D, z | 
D,F, D,A,,/ z/ | 
D,D, D,D, | 
[M:3/4]D,A, A,/F,3/ D, z | 
F,/D,/D, F,/D,/D,3//D,// F,A, | 
D,D, D,D, D,D, |]  



